X: 96
T: My Goal
C: Teton Sioux band 1911-1914
N: Derived from sioux096.krn
O: South Dakota, U.S.A.
N: Teton Sioux Music by Frances Densmore, 1918
Z: transcribed to **kern format by Craig Sapp
L: 1/8
M: 2/4
Q: 1/4=58
K: Gb clef=bass
%%linebreak <none>
B,/ [I:setbarnb 1]| 
F> F F3/ F/ | 
E2E E/ E/ | 
E> E (E D) | 
D> B,D2 | 
E2E3/ E/ | 
E D D3/ E/ | 
D> D D B, | 
D> D B,3/ B,/ ||  
[M:3/4]B,> B, B, G,/> G,/ B,/ B,3/ | 
B,> B, B, G,/ G,/G,2 ||  
[M:2/4]G,> G, G,3/ :|]  



